X: 661
T: Jian lantan
L: 1/8
M: 2/4
K: F
d2d f [I:setbarnb 1]| 
d2c2 | 
f> f f c | 
d cA2 | 
A2A c | 
d f c A | 
A> G F A | 
G4 | 
A2A c | 
f2d d | 
A2c d | 
F2D2 | 
d d A c | 
d c A c | 
GD2C | 
D4 |]

@@@ Tune index: 9535
